X:207
T:Pegasus. (p)1670.PLFD1.207
T:Flying Horse. (p)1670.PLFD1.207, The
M:6/4
L:1/4
Q:3/4=90
S:Playford, Dancing Master,4th Ed.,1670.
O:England;London
H:1670.
Z:Chris Partington
K:F
d3c>dB|A2G^FDd/e/|f>edcB2|A3-A2d|
f>edg2G|B>AGd2D|E>FG^F>EF|G3G3:|
|:F2Dd>cB|AFBAFB|A2GF3|D2dc2B|
A2fe2d|c>BAB>cd|c>Bcd3:|
|:d3c2B|A3-A2A|B>cddc2|d3-d2e/f/|
f>edg2G|B>AGd2D|E>FG^F>EF|G3-G3:|

